X:1
T:Great Apollo, strike the lyre - Webbe
T:#
%%score [ 1 2 3 4 ]
L:1/8
Q:1/4=84
M:4/4
K:D
V:1 treble nm="Soprano" snm="S"
V:2 treble nm="Alto" snm="A"
V:3 treble-8 nm="Tenor" snm="T"
V:4 bass nm="Bass" snm="B"
V:1
"^Great Apollo, strike the lyre""^Samuel Webbe\n(1740-1816)""^larghetto"!mf! A3 A (d4- | %1
w: Great A- pol\-|
 dcfe dcdB | A2 B4 Tc2 | d4) !fermata!d4 |[M:4/4] f3 (g/e/) d2 d2- | d2!f! c>c d4 | z4 z2!p! d2 | %7
w: ||* lo,|great A\- * pol- lo,|* strike the lyre,|strike,|
 z2!f! e>c d2 z2 | z8 | z4 z2 ee | e (f/e/) dc d2 z2 | z4 z2 e (e/d/) | cA e>d c2 de | f6 d2 | %14
w: strike the lyre,||Let the|fes- tive * song go round,|Let this *|night with joy be crown'd, let this|night with|
 (c4 TB3) A |1 A8 :|2 (A2 e2- e/f/e/d/ c/d/c/B/ || c4- c/d/c/B/ A/B/A/^G/ | A4 (ed) cd) | %19
w: joy * be|crown'd.|crown'd, * * * * * * * * *||* let * this *|
 (ed) (cd) e2 Tf2 | g4 f2 f2 | e2 (d/c/d/B/) A3 G | F4 z4 | z8 | z8 | z8 | z8 | z4 z2 dd | %28
w: night * with * joy be|crown'd, let this|night with * * * joy be|crown'd.|||||Let the|
 d (c/d/) ee (ed)ff | f (e/f/) gg (gf) z2 | z4 z2 d=c | B2 BA (G e2) (d/=c/) | (B d2) =c B4 | %33
w: fes- tive * song go round, * let the|fes- tive * song go round, *|Let this|night, let this night * with *|joy * be crown'd,|
 ^c2 c2({e} d/c/d/e/ d)f | e2 Te2({g} f/e/f/g/ f2) | f2 f2 f2 e2 | (f4 T^g3) a | a8 | %38
w: let this * * * * * with|joy be * * * * *|let this night with|joy * be|crown'd.|
 f3 (g/e/) d2 d2- | d2!f! c>c d4 | z4 z2!p! d2 | z2!f! e>c d2 z2 | z8 | z8 | z4 z2 ee | %45
w: Great A\- * pol- lo,|* strike the lyre,|strike,|strike the lyre,|||Let the|
 e (f/e/) dc d2 cc | (d/e/) (f/d/) c>c d2 gf | g3 e (d2 Tc>)d | d2 z e f2 z e | d4 g2 f2 | g4 g4 | %51
w: fes- tive * song go round, Let this|night * with * joy be crown'd, let this|night with joy * be|crown'd, be crown'd, be|crown'd, let this|night with|
 f4 Te4 | d8 |] %53
w: joy be|crown'd.|
V:2
!mf! (x7 G/F/ | E2) A2 F2 F2 | (F2 G4) (G3/2A/4G/4) | F4 !fermata!F4 |[M:4/4] A3 (B/G/) F2 F2 | %5
w: |* A- pol- lo,|great * A\- * *|pol- lo,|great A\- * pol- lo,|
 E2!f! A>G F4 | z4 z2!p! F2 | z2!f! A>A D2 z2 | z4 z2 A>B | cBcA e4 | z4 z2 dd | %11
w: strike, strike the lyre,|strike,|strike the lyre,|Fill the|rap- tur'd soul with fire,|Let the|
 d (e/d/) cB c2 ^GG | (A/B/) (c/A/) ^G>G A2 dc | d6 B2 | (A4 T^G3) A |1 A8 :|2 %16
w: fes- tive * song go round, Let this|night * with * joy be crown'd. let this|night with|joy * be|crown'd.|
 (A2 c2- c/d/c/B/ A/B/A/^G/ || A2 e2- e/f/e/d/ c/d/c/B/ | c4 (cB) AB) | (cB) (AB) c2 Td2 | %20
w: crown'd * * * * * * * * *||* let * this *|night * with * joy be|
 e4 d2 d2 | c2 (B/A/B/G/) F3 E | D4 z4 | z8 | z8 | z8 | z8 | z8 | z4 z2 dd | d (c/d/) ee (ed) z2 | %30
w: crown'd, let this|night with * * * joy be|crown'd.||||||Let the|fes- tive * song go round, *|
 z8 | z2 d=c (B c2) (B/A/) | (G2 TF>)G G4 | E2 A2({G} F/E/F/G/ F)d | d2 c2({e} d/c/d/e/ d2) | %35
w: |Let this night * with *|joy * be crown'd,|let this * * * * * with|joy be * * * * *|
 d2 d2 d2 e2 | d6 (d3/2e/4d/4) | (d2 c6) | (d2 A) (B/G/) F2 F2 | E2!f! A>G F4 | z4 z2!p! F2 | %41
w: let this night with|joy be * *|crown'd. *|Great * A\- * pol- lo,|strike, strike the lyre,|strike,|
 z2!f! A>A D2 z2 | z4 z2 A>B | cBcA d4 | z4 z2 GG | G (A/G/) FE F2 A (A/G/) | FD A>G F2 GA | %47
w: strike the lyre,|Fill the|rap- tur'd soul with fire,|Let the|fes- tive * song go round, Let this *|night with joy be crown'd, let this|
 B3 G (F2 TE>)F | F2 z c d2 z c | d4 G2 A2 | B4 (B2 e2) | d4 c4 | d8 |] %53
w: night with joy * be|crown'd, be crown'd, be|crown'd, let this|night with *|joy be|crown'd.|
V:3
!mf! d6 d2 | (e2 c2) d4 | (d4 e2) Te2 | f4 !fermata!d4 |[M:4/4][K:treble-8] z4 z2 d2 | %5
w: Great A-|pol\- * lo,|great * A-|pol- lo,|strike|
 z2!f! A>A A4 |!p! A3 (B/G/) FA d2- | d2!f! c>A d2 z2 | z8 | z4 z2 cc | c (d/c/) B^A B2 z2 | %11
w: strike the lyre,|great A\- * pol- lo, strike,|* strike the lyre,||Let the|fes- tive * song go round,|
 z4 z2 (B/c/) (d/B/) | cc (B/c/) (d/B/) c2 AA | A6 A2 | (A2 e4) d2 |1 c8 :|2 c4 z4 || z8 | %18
w: Let * this *|night with joy * be * crown'd, let this|night with|joy * be|crown'd.|crown'd.||
 z2 !wedge!c2 z4 | z8 | z2 !wedge!c2 z4 | z8 | z2 A2 d2 f2 | (ed) (cB) A2 (Bc) | d8- | d8 | %26
w: Hark!||Hark!||Hark, hark, what|num\- * bers * soft and *|clear,||
 (DF) (FA) (Ad) d2 | f2 Te2 d4 | z8 | z4 z2 FG | AB=cA B2 z2 | z8 | z4 z2 dB | z2 cA z2 dA | %34
w: hark, * what * num\- * bers|soft and clear,||Sure no|mor- tal sweeps the strings,||Lis- ten,|li- sten, li- sten,|
 AAAA A4 | A2 A2 A2 A2 | d6 B2 | e8 | z4 z2 d2 | z2!f! A>A A4 |!p! A3 (B/G/) FA d2- | %41
w: 'tis A- pol- lo sings,|let this night with|joy be|crown'd.|Strike,|strike the lyre,|great A\- * pol- lo, strike,|
 d2!f! c>A d2 z2 | z8 | z4 z2 AA | A (B/A/) GF G2 z2 | z4 z2 (e/f/) (g/e/) | %46
w: * strike the lyre,||Let the|fes- tive * song go round,|Let * this *|
 ff (e/f/) (g/e/) f2 dd | d2 d2 A3 A | A2 z A d2 z e | f4 d2 d2 | d4 e4 | (f2 d2) (e2 a2) | f8 |] %53
w: night with joy * be * crown'd, let this|night with joy be|crown'd, be crown'd, be|crown'd, let this|night with|joy * be *|crown'd.|
V:4
!mf! D,6 D,2 | A,4 B,4 | (F,D,G,F, E,2) TA,2 | D4 !fermata!D,4 |[M:4/4] z8 | z2!f! A,>A, D,4 | %6
w: Great A-|pol- lo,|great * * * * A-|pol- lo,||strike the lyre,|
!p! F,3 (G,/E,/) D,2 D,2 | E,2!f! A,>G, F,2 D,>E, | F,E,F,D, A,4 | z8 | z4 z2 B,B, | %11
w: great A\- * pol- lo,|strike, strike the lyre, Fill the|rap- tur'd soul with fire,||Let the|
 B, (C/B,/) A,^G, A,2 E,E, | E,E, E,>E, A,2 F,E, | D,6 D,2 | E,6 E,2 |1 A,,8 :|2 A,,4 z4 || z8 | %18
w: fes- tive * song go round, Let this|night with joy be crown'd, let this|night with|joy be|crown'd.|crown'd.||
 z2 !wedge!A,2 z4 | z8 | z2 !wedge!A,2 z4 | z8 | z4 F,2 z D, | A,2 (A,G,) F,2 E,2 | %24
w: Hark!||Hark!||Hark, what|num- bers * soft and|
 D,2 z2 (B, G,2) (A,/B,/) | (A, F,2) (G,/A,/) (B, G,2) (A,/B,/) | A,4 z4 | A,2 TG,2 F,4 | z8 | %29
w: clear, Steal * up\- *|on * the * ra\- * vish'd *|ear.|soft and clear,||
 z4 z2 D,E, | F,G,A,F, G,2 z2 | z8 | z4 z2 B,G, | z2 A,A,, z2 DD, | A,A,A,A, D,4 | %35
w: Sure no|mor- tal sweeps the strings,||Lis- ten,|li- sten, li- sten,|'tis A- pol- lo sings,|
 D,2 D,2 D,2 C,2 | B,,6 B,,2 | A,,8 | z8 | z2!f! A,>A, D,4 |!p! F,3 (G,/E,/) D,2 D,2 | %41
w: let this night with|joy be|crown'd.||strike the lyre,|great A\- * pol- lo,|
 E,2!f! A,>G, F,2 D,>E, | F,E,F,D, A,4 | z4 z2 F,F, | F, (G,/F,/) E,^D, E,2 z2 | z4 z2 A,A, | %46
w: strike, strike the lyre, Fill the|rap- tur'd soul with fire,|Let the|fes- tive * song go round,|Let this|
 A,A, A,>A, D2 B,A, | G,2 G,2 A,3 A, | D,2 z A, D2 z A, | D4 B,2 A,2 | G,4 E,4 | A,6 A,2 | D,8 |] %53
w: night with joy be crown'd, let this|night with joy be|crown'd, be crown'd, be|crown'd, let this|night with|joy be|crown'd.|

